public/svgs/magnifying-glass-solid.svg

<svg width="512" height="512" viewBox="0 0 512 512" fill="none" xmlns="http://www.w3.org/2000/svg">
<path d="M500.299 443.7L380.599 324C407.819 283.59 421.249 233.1 414.059 179.3C401.799 87.7896 326.799 13.3197 235.199 1.72266C99.0088 -15.5103 -15.5112 99.0096 1.72284 235.2C13.3228 326.84 87.8028 401.9 179.323 414.1C233.123 421.289 283.623 407.864 324.023 380.64L443.723 500.34C459.343 515.96 484.673 515.96 500.293 500.34C515.899 484.7 515.899 459.3 500.299 443.7ZM79.0988 208C79.0988 137.42 136.519 79.9997 207.099 79.9997C277.679 79.9997 335.099 137.42 335.099 208C335.099 278.58 277.679 336 207.099 336C136.519 336 79.0988 278.6 79.0988 208Z" fill="#131D1B"/>
</svg>

<svg xmlns="http://www.w3.org/2000/svg" viewBox="0 0 512 512"><!--! Font Awesome Pro 6.1.1 by @fontawesome - https://fontawesome.com License - https://fontawesome.com/license (Commercial License) Copyright 2022 Fonticons, Inc. --><path d="M500.3 443.7l-119.7-119.7c27.22-40.41 40.65-90.9 33.46-144.7C401.8 87.79 326.8 13.32 235.2 1.723C99.01-15.51-15.51 99.01 1.724 235.2c11.6 91.64 86.08 166.7 177.6 178.9c53.8 7.189 104.3-6.236 144.7-33.46l119.7 119.7c15.62 15.62 40.95 15.62 56.57 0C515.9 484.7 515.9 459.3 500.3 443.7zM79.1 208c0-70.58 57.42-128 128-128s128 57.42 128 128c0 70.58-57.42 128-128 128S79.1 278.6 79.1 208z"/></svg>
